svgs/sharp-solid/cloud-word.svg

<svg xmlns="http://www.w3.org/2000/svg" viewBox="0 0 640 512"><!--! Font Awesome Pro 6.6.0 by @fontawesome - https://fontawesome.com License - https://fontawesome.com/license (Commercial License) Copyright 2024 Fonticons, Inc. --><path d="M0 480l144 0 368 0 128 0 0-128c0-59.6-40.8-109.8-96-124l0-36c0-53-43-96-96-96c-19.7 0-38.1 6-53.3 16.2C367 64.2 315.3 32 256 32C167.6 32 96 103.6 96 192l0 8.2C40.1 220 0 273.3 0 336L0 480zM512 352l0 32-16 0-192 0-16 0 0-32 16 0 192 0 16 0zm-272 0l16 0 0 32-16 0-96 0-16 0 0-32 16 0 96 0zM128 288l16 0 192 0 16 0 0 32-16 0-192 0-16 0 0-32zm272 0l96 0 16 0 0 32-16 0-96 0-16 0 0-32 16 0z"/></svg>

<svg xmlns="http://www.w3.org/2000/svg" viewBox="0 0 640 512"><!--! Font Awesome Pro 6.4.2 by @fontawesome - https://fontawesome.com License - https://fontawesome.com/license (Commercial License) Copyright 2023 Fonticons, Inc. --><path d="M0 480H144 512 640V352c0-59.6-40.8-109.8-96-124V192c0-53-43-96-96-96c-19.7 0-38.1 6-53.3 16.2C367 64.2 315.3 32 256 32C167.6 32 96 103.6 96 192v8.2C40.1 220 0 273.3 0 336V480zM512 352v32H496 304 288V352h16H496h16zm-272 0h16v32H240 144 128V352h16 96zM128 288h16H336h16v32H336 144 128V288zm272 0h96 16v32H496 400 384V288h16z"/></svg>
